; generated by PrusaSlicer 2.8.1 on 2024-09-29 at 11:58:19 UTC


;
;

;
;
; 

; external perimeters extrusion width = 0.45mm
; perimeters extrusion width = 0.45mm
; infill extrusion width = 0.45mm
; solid infill extrusion width = 0.45mm
; top infill extrusion width = 0.40mm
; first layer extrusion width = 0.42mm

M73 P0 R18

; printing object strap-lock.stl id:0 copy 0
; stop printing object strap-lock.stl id:0 copy 0

;TYPE:Custom
G90 ; use absolute coordinates
M83 ; extruder relative mode
M204 S1250 T1250
M104 S215 ; set extruder temp
M140 S65 ; set bed temp
G28 ; home all
G1 Y1.0 Z0.3 F1000 ; move print head up
M190 S65 ; wait for bed temp
M109 S215 ; wait for extruder temp
G92 E0.0
; initial load
G1 X205.0 E19 F1000
G1 Y1.6
M73 P1 R18
G1 X5.0 E19 F1000
G92 E0.0
; intro line
G1 Y2.0 Z0.2 F1000
M73 P2 R18
G1 X65.0 E9.0 F1000
G1 X105.0 E12.5 F1000
G92 E0.0
G21 ; set units to millimeters
G90 ; use absolute coordinates
M83 ; use relative distances for extrusion
; Filament gcode
M107
;LAYER_CHANGE
;Z:0.2
;HEIGHT:0.2
G1 E-6 F2400
G1 Z.275 F10800
G1 X91.135 Y90.494
G1 Z.2
G1 E6 F3000
M204 S800
;TYPE:Skirt/Brim
;WIDTH:0.42
G1 F1200
G1 X92.746 Y89.109 E.06661
G1 X94.524 Y87.885 E.06768
G1 X95.793 Y87.172 E.04564
G1 X97.696 Y86.311 E.06549
G1 X99.665 Y85.656 E.06506
G1 X101.802 Y85.191 E.06857
M73 P2 R17
G1 X103.246 Y85.013 E.04562
G1 X105.314 Y84.937 E.06488
G1 X107.432 Y85.083 E.06657
G1 X109.558 Y85.46 E.0677
G1 X110.907 Y85.825 E.04382
G1 X112.899 Y86.556 E.06653
G1 X114.808 Y87.496 E.06672
G1 X116.632 Y88.652 E.06771
G1 X117.714 Y89.48 E.04272
G1 X119.307 Y90.934 E.06762
G1 X120.722 Y92.536 E.06702
G1 X121.951 Y94.269 E.06661
M73 P3 R17
G1 X122.696 Y95.548 E.04641
G1 X123.576 Y97.42 E.06486
G1 X124.263 Y99.391 E.06545
G1 X124.753 Y101.493 E.06767
G1 X125.02 Y103.707 E.06992
G1 X125.062 Y105.104 E.04382
G1 X124.95 Y107.121 E.06334
G1 X124.606 Y109.252 E.06768
G1 X124.263 Y110.606 E.04379
G1 X123.522 Y112.71 E.06994
G1 X122.569 Y114.689 E.06887
G1 X121.465 Y116.465 E.06557
G1 X120.115 Y118.193 E.06875
G1 X118.61 Y119.741 E.06769
G1 X117.477 Y120.711 E.04677
G1 X115.705 Y121.969 E.06814
G1 X113.831 Y123.016 E.06731
G1 X111.897 Y123.842 E.06594
G1 X109.899 Y124.456 E.06554
G1 X108.465 Y124.763 E.04598
G1 X106.449 Y125.013 E.06369
G1 X104.327 Y125.053 E.06655
G1 X102.851 Y124.949 E.04639
G1 X100.706 Y124.601 E.06813
G1 X98.625 Y124.027 E.06768
G1 X96.671 Y123.256 E.06586
G1 X94.766 Y122.26 E.0674
G1 X93.542 Y121.472 E.04564
G1 X91.881 Y120.186 E.06586
G1 X90.372 Y118.738 E.06557
G1 X89.024 Y117.141 E.06553
G1 X88.179 Y115.943 E.04597
G1 X87.106 Y114.083 E.06733
G1 X86.263 Y112.186 E.06509
G1 X85.603 Y110.14 E.06741
G1 X85.292 Y108.778 E.0438
G1 X84.996 Y106.602 E.06886
G1 X84.938 Y104.512 E.06556
G1 X85.104 Y102.385 E.06689
G1 X85.352 Y100.925 E.04643
G1 X85.875 Y98.924 E.06485
G1 X86.628 Y96.928 E.06689
G1 X87.585 Y95.031 E.06662
G1 X88.367 Y93.775 E.04639
G1 X89.624 Y92.105 E.06554
G1 X91.094 Y90.537 E.06739
M204 S1000
G1 X91.094 Y90.537 F10800
G1 X91.369 Y90.795
M204 S800
G1 F1200
G1 X91.396 Y90.765 E.00127
G1 X92.975 Y89.408 E.06528
G1 X94.728 Y88.203 E.0667
G1 X95.96 Y87.51 E.04432
G1 X97.834 Y86.661 E.06451
G1 X99.764 Y86.02 E.06376
G1 X101.87 Y85.562 E.06758
G1 X103.272 Y85.389 E.04429
G1 X105.309 Y85.314 E.06391
G1 X107.385 Y85.457 E.06525
G1 X109.48 Y85.829 E.06671
G1 X110.788 Y86.183 E.04249
G1 X112.751 Y86.903 E.06556
G1 X114.623 Y87.825 E.06543
G1 X116.42 Y88.964 E.06671
G1 X117.469 Y89.766 E.0414
G1 X119.039 Y91.199 E.06665
G1 X120.426 Y92.769 E.06568
G1 X121.637 Y94.476 E.06562
G1 X122.36 Y95.72 E.04511
G1 X123.227 Y97.564 E.06389
G1 X123.9 Y99.495 E.06412
G1 X124.383 Y101.567 E.06671
G1 X124.645 Y103.739 E.0686
G1 X124.685 Y105.094 E.0425
G1 X124.575 Y107.08 E.06237
G1 X124.236 Y109.18 E.0667
G1 X123.903 Y110.493 E.04247
G1 X123.177 Y112.558 E.06863
G1 X122.238 Y114.508 E.06786
G1 X121.157 Y116.248 E.06423
G1 X119.832 Y117.944 E.06748
G1 X118.348 Y119.469 E.06672
G1 X117.247 Y120.412 E.04545
G1 X115.511 Y121.646 E.06678
G1 X113.664 Y122.678 E.06634
G1 X111.768 Y123.488 E.06465
G1 X109.8 Y124.092 E.06455
G1 X108.408 Y124.391 E.04464
G1 X106.423 Y124.636 E.06271
G1 X104.333 Y124.676 E.06554
G1 X102.898 Y124.575 E.0451
G1 X100.795 Y124.234 E.0668
G1 X98.743 Y123.669 E.06673
G1 X96.828 Y122.913 E.06455
G1 X94.951 Y121.932 E.06641
G1 X93.763 Y121.167 E.0443
G1 X92.127 Y119.899 E.0649
G1 X90.648 Y118.481 E.06424
G1 X89.32 Y116.907 E.06457
G1 X88.499 Y115.744 E.04464
G1 X87.442 Y113.911 E.06634
G1 X86.616 Y112.052 E.06378
G1 X85.965 Y110.036 E.06642
G1 X85.664 Y108.715 E.04248
G1 X85.372 Y106.571 E.06784
G1 X85.315 Y104.522 E.06427
G1 X85.479 Y102.426 E.06592
G1 X85.72 Y101.008 E.0451
G1 X86.234 Y99.037 E.06387
G1 X86.973 Y97.081 E.06556
G1 X87.915 Y95.212 E.06562
G1 X88.676 Y93.991 E.04511
G1 X89.914 Y92.347 E.06453
G1 X91.328 Y90.839 E.06482
M204 S1000
G1 E-3.6 F2400
;WIPE_START
G1 F8640
G1 X91.369 Y90.795 E-.01587
G1 X91.396 Y90.765 E-.01065
G1 X92.975 Y89.408 E-.54941
G1 X94.728 Y88.203 E-.56135
G1 X95.96 Y87.51 E-.37302
M73 P4 R17
G1 X97.834 Y86.661 E-.54291
G1 X99.081 Y86.247 E-.34679
;WIPE_END
G1 Z.275 F10800
G1 X93.051 Y92.642
G1 Z.2
G1 E6 F3000
M204 S800
G1 F1200
G1 X93.781 Y91.944 E.03167
G1 X95.372 Y90.729 E.06277
G1 X96.171 Y90.222 E.02967
G1 X97.856 Y89.338 E.05966
G1 X99.661 Y88.635 E.06074
G1 X100.579 Y88.363 E.03002
G1 X102.453 Y87.976 E.06
G1 X104.358 Y87.798 E.05999
G1 X106.229 Y87.831 E.05867
G1 X108.053 Y88.06 E.05764
G1 X109.877 Y88.493 E.05878
G1 X110.789 Y88.79 E.03007
G1 X112.646 Y89.579 E.06326
G1 X114.247 Y90.484 E.05766
G1 X115.895 Y91.675 E.06375
G1 X116.621 Y92.303 E.0301
G1 X117.933 Y93.643 E.0588
G1 X119.067 Y95.082 E.05744
G1 X120.137 Y96.808 E.06367
G1 X120.952 Y98.539 E.05999
G1 X121.549 Y100.271 E.05744
G1 X121.959 Y102.067 E.05776
G1 X122.18 Y103.968 E.06001
G1 X122.211 Y105.074 E.03469
G1 X122.105 Y106.905 E.05751
G1 X121.804 Y108.723 E.05778
G1 X121.287 Y110.565 E.05999
G1 X120.896 Y111.6 E.03469
G1 X120.103 Y113.254 E.05751
G1 X119.134 Y114.822 E.05779
G1 X117.957 Y116.33 E.05998
G1 X117.202 Y117.139 E.0347
G1 X115.84 Y118.369 E.05754
G1 X114.35 Y119.451 E.05774
G1 X112.688 Y120.4 E.06001
G1 X111.681 Y120.863 E.03475
G1 X109.911 Y121.497 E.05895
G1 X108.092 Y121.932 E.05864
G1 X106.235 Y122.169 E.0587
G1 X104.355 Y122.201 E.05895
G1 X103.25 Y122.125 E.03473
G1 X102.299 Y122.001 E.03007
G1 X100.465 Y121.606 E.05882
G1 X98.706 Y121.022 E.05811
G1 X97.009 Y120.247 E.05849
G1 X96.18 Y119.783 E.02979
G1 X94.482 Y118.628 E.06439
G1 X93.086 Y117.426 E.05776
G1 X91.812 Y116.066 E.05843
G1 X91.23 Y115.332 E.02937
G1 X90.11 Y113.64 E.06362
G1 X89.267 Y111.989 E.05812
G1 X88.56 Y110.11 E.06295
G1 X88.095 Y108.255 E.05996
G1 X87.943 Y107.331 E.02936
G1 X87.79 Y105.46 E.05886
G1 X87.841 Y103.606 E.05815
G1 X87.94 Y102.686 E.02901
G1 X88.34 Y100.662 E.06469
G1 X88.915 Y98.865 E.05916
G1 X89.667 Y97.172 E.05808
G1 X90.692 Y95.428 E.06343
G1 X91.232 Y94.665 E.02931
G1 X92.454 Y93.212 E.05953
G1 X93.007 Y92.683 E.02399
M204 S1000
G1 X93.007 Y92.683 F10800
G1 X93.271 Y92.93
M204 S800
G1 F1200
G1 X93.377 Y92.817 E.00486
G1 X94.709 Y91.673 E.05505
G1 X95.579 Y91.045 E.03364
G1 X97.177 Y90.09 E.05837
G1 X98.871 Y89.318 E.05837
G1 X99.773 Y88.995 E.03004
G1 X101.582 Y88.514 E.05869
G1 X103.433 Y88.237 E.05868
G1 X105.303 Y88.166 E.05867
G1 X107.109 Y88.297 E.05677
G1 X108.872 Y88.616 E.05618
G1 X110.666 Y89.147 E.05866
G1 X111.664 Y89.54 E.03363
G1 X113.271 Y90.337 E.05624
G1 X114.798 Y91.31 E.05677
G1 X115.653 Y91.964 E.03375
G1 X117.034 Y93.227 E.05868
G1 X118.223 Y94.581 E.0565
G1 X119.262 Y96.056 E.05657
G1 X119.803 Y96.983 E.03365
G1 X120.601 Y98.676 E.05868
G1 X121.187 Y100.379 E.05647
G1 X121.589 Y102.136 E.05651
G1 X121.804 Y103.995 E.05868
G1 X121.834 Y105.067 E.03362
G1 X121.73 Y106.868 E.05656
G1 X121.435 Y108.646 E.05651
G1 X120.928 Y110.448 E.05869
G1 X120.549 Y111.451 E.03362
G1 X119.77 Y113.078 E.05656
G1 X118.822 Y114.61 E.05649
G1 X117.67 Y116.085 E.05868
G1 X116.938 Y116.87 E.03365
G1 X115.599 Y118.079 E.05656
G1 X114.141 Y119.137 E.05648
G1 X112.515 Y120.065 E.0587
G1 X111.539 Y120.514 E.03368
G1 X109.808 Y121.135 E.05766
G1 X108.029 Y121.561 E.05736
G1 X106.213 Y121.792 E.0574
G1 X104.364 Y121.824 E.05798
G1 X103.293 Y121.75 E.03366
G1 X101.444 Y121.457 E.0587
G1 X99.705 Y120.983 E.05651
G1 X98.018 Y120.321 E.05682
G1 X96.369 Y119.457 E.05837
G1 X95.445 Y118.863 E.03444
G1 X94.017 Y117.763 E.05652
G1 X92.71 Y116.51 E.05677
G1 X91.529 Y115.102 E.05762
G1 X90.913 Y114.224 E.03363
G1 X90.002 Y112.654 E.05691
G1 X89.265 Y110.995 E.05692
G1 X88.922 Y110.003 E.03291
G1 X88.466 Y108.189 E.05865
G1 X88.217 Y106.367 E.05766
G1 X88.168 Y104.522 E.05787
G1 X88.315 Y102.733 E.05628
G1 X88.498 Y101.652 E.03438
G1 X88.96 Y99.875 E.05757
G1 X89.617 Y98.152 E.05782
G1 X90.423 Y96.571 E.05564
G1 X91.003 Y95.641 E.03437
G1 X92.112 Y94.164 E.05791
M73 P5 R17
G1 X93.23 Y92.974 E.0512
M204 S1000
G1 X93.23 Y92.974 F10800
G1 X93.499 Y93.255
M204 S800
G1 F1200
G1 X94.273 Y92.516 E.03355
G1 X95.786 Y91.36 E.0597
G1 X96.549 Y90.874 E.02836
G1 X98.169 Y90.024 E.05736
G1 X99.886 Y89.355 E.05778
G1 X100.763 Y89.095 E.02868
G1 X102.555 Y88.723 E.05738
G1 X104.376 Y88.552 E.05735
G1 X106.175 Y88.584 E.05642
G1 X107.929 Y88.804 E.05543
G1 X109.672 Y89.219 E.05618
G1 X110.544 Y89.503 E.02875
G1 X112.311 Y90.255 E.06021
G1 X113.85 Y91.125 E.05543
G1 X115.411 Y92.253 E.06039
G1 X116.104 Y92.853 E.02874
G1 X117.367 Y94.141 E.05656
G1 X118.456 Y95.525 E.05522
G1 X119.469 Y97.158 E.06025
G1 X120.25 Y98.813 E.05738
G1 X120.826 Y100.487 E.05551
G1 X121.218 Y102.205 E.05525
G1 X121.428 Y104.022 E.05735
G1 X121.457 Y105.061 E.03259
G1 X121.355 Y106.831 E.05559
G1 X121.065 Y108.569 E.05525
G1 X120.57 Y110.33 E.05735
G1 X120.202 Y111.302 E.03259
G1 X119.436 Y112.901 E.05559
G1 X118.509 Y114.399 E.05523
G1 X117.383 Y115.841 E.05736
G1 X116.673 Y116.601 E.03261
G1 X115.358 Y117.79 E.05559
G1 X113.932 Y118.823 E.05521
G1 X112.342 Y119.73 E.05739
G1 X111.397 Y120.164 E.03261
G1 X109.705 Y120.772 E.05637
G1 X107.957 Y121.19 E.05635
G1 X106.18 Y121.417 E.05617
G1 X104.374 Y121.447 E.05663
G1 X103.336 Y121.375 E.03262
G1 X100.673 Y120.881 E.08492
G1 X98.981 Y120.32 E.05589
G1 X97.359 Y119.579 E.05591
G1 X96.558 Y119.131 E.02878
G1 X94.951 Y118.037 E.06095
G1 X93.608 Y116.882 E.05554
G1 X92.39 Y115.581 E.05588
G1 X91.828 Y114.872 E.02837
G1 X90.767 Y113.27 E.06025
G1 X89.956 Y111.683 E.05588
G1 X89.283 Y109.895 E.0599
G1 X88.691 Y107.239 E.08532
G1 X88.544 Y105.44 E.05659
G1 X88.593 Y103.658 E.05589
G1 X88.689 Y102.779 E.02772
G1 X89.067 Y100.862 E.06126
G1 X89.616 Y99.143 E.05658
G1 X90.334 Y97.524 E.05553
G1 X90.752 Y96.756 E.02742
G1 X91.829 Y95.126 E.06126
G1 X92.996 Y93.736 E.05691
G1 X93.455 Y93.297 E.01991
M204 S1000
G1 X93.455 Y93.297 F10800
G1 X93.723 Y93.548
M204 S800
G1 F1200
G1 X93.89 Y93.37 E.00765
G1 X95.177 Y92.264 E.05321
G1 X95.993 Y91.675 E.03155
G1 X97.518 Y90.763 E.05571
G1 X99.145 Y90.02 E.05608
G1 X99.998 Y89.715 E.0284
G1 X101.725 Y89.254 E.05604
G1 X103.493 Y88.988 E.05606
G1 X105.279 Y88.92 E.05604
G1 X107.015 Y89.045 E.05457
G1 X108.708 Y89.352 E.05395
G1 X110.421 Y89.86 E.05602
G1 X111.357 Y90.229 E.03155
G1 X112.9 Y90.993 E.05399
G1 X114.366 Y91.928 E.05452
G1 X115.168 Y92.542 E.03167
G1 X116.488 Y93.748 E.05606
G1 X117.631 Y95.048 E.05428
G1 X118.628 Y96.464 E.0543
G1 X119.135 Y97.334 E.03157
G1 X119.899 Y98.95 E.05605
G1 X120.462 Y100.586 E.05425
G1 X120.847 Y102.273 E.05425
G1 X121.052 Y104.049 E.05605
G1 X121.08 Y105.055 E.03155
G1 X120.98 Y106.785 E.05433
G1 X120.696 Y108.492 E.05426
G1 X120.212 Y110.213 E.05605
G1 X119.856 Y111.154 E.03155
G1 X119.108 Y112.716 E.0543
G1 X118.197 Y114.188 E.05428
G1 X117.096 Y115.596 E.05604
G1 X116.409 Y116.332 E.03157
G1 X115.124 Y117.494 E.05432
G1 X113.723 Y118.509 E.05424
G1 X112.17 Y119.394 E.05604
G1 X111.255 Y119.815 E.03158
G1 X109.602 Y120.409 E.05507
G1 X107.894 Y120.819 E.05507
G1 X106.148 Y121.041 E.05519
G1 X104.384 Y121.071 E.05532
G1 X103.379 Y121.001 E.03159
G1 X101.613 Y120.722 E.05606
G1 X99.942 Y120.267 E.0543
G1 X98.322 Y119.631 E.05457
G1 X96.747 Y118.805 E.05576
G1 X95.88 Y118.247 E.03233
G1 X94.509 Y117.191 E.05426
G1 X93.26 Y115.994 E.05424
G1 X92.127 Y114.642 E.05531
G1 X91.549 Y113.818 E.03156
G1 X90.678 Y112.32 E.05433
G1 X89.97 Y110.728 E.05463
G1 X89.644 Y109.788 E.0312
G1 X89.208 Y108.055 E.05603
G1 X88.969 Y106.316 E.05504
G1 X88.922 Y104.553 E.0553
G1 X89.063 Y102.825 E.05436
G1 X89.236 Y101.81 E.03228
G1 X89.676 Y100.114 E.05494
G1 X90.302 Y98.467 E.05524
G1 X91.08 Y96.941 E.05371
G1 X91.625 Y96.067 E.03229
G1 X92.683 Y94.657 E.05527
G1 X93.682 Y93.592 E.04578
M204 S1000
G1 X93.682 Y93.592 F10800
G1 X93.947 Y93.869
M204 S800
G1 F1200
G1 X94.764 Y93.088 E.03544
G1 X96.928 Y91.527 E.08366
G1 X98.473 Y90.714 E.05474
G1 X100.11 Y90.075 E.0551
G1 X102.657 Y89.47 E.08208
G1 X104.395 Y89.306 E.05474
G1 X106.112 Y89.335 E.05384
G1 X107.804 Y89.548 E.05347
M73 P6 R17
G1 X109.468 Y89.945 E.05364
G1 X110.298 Y90.217 E.02739
G1 X111.967 Y90.926 E.05686
G1 X113.445 Y91.761 E.05323
G1 X114.926 Y92.831 E.05729
G1 X116.793 Y94.631 E.08131
G1 X117.839 Y95.959 E.053
G1 X118.801 Y97.509 E.0572
G1 X119.846 Y99.884 E.08136
G1 X120.31 Y101.508 E.05296
G1 X120.6 Y103.206 E.05401
G1 X120.703 Y105.05 E.05791
G1 X120.606 Y106.738 E.05301
G1 X120.327 Y108.415 E.0533
G1 X119.853 Y110.095 E.05473
G1 X119.509 Y111.005 E.0305
G1 X118.78 Y112.531 E.05303
G1 X117.885 Y113.976 E.05329
G1 X116.809 Y115.351 E.05474
G1 X116.145 Y116.063 E.03053
G1 X114.891 Y117.197 E.05301
G1 X113.514 Y118.195 E.05332
G1 X111.997 Y119.059 E.05474
G1 X111.112 Y119.466 E.03054
G1 X109.489 Y120.049 E.05407
G1 X107.821 Y120.449 E.05378
G1 X106.116 Y120.665 E.05389
G1 X104.393 Y120.694 E.05403
G1 X103.421 Y120.626 E.03055
G1 X100.871 Y120.153 E.08132
G1 X99.257 Y119.618 E.05331
G1 X97.7 Y118.907 E.05367
G1 X96.937 Y118.479 E.02743
G1 X95.419 Y117.446 E.05757
G1 X94.13 Y116.338 E.05329
G1 X92.961 Y115.089 E.05364
G1 X92.425 Y114.412 E.02707
G1 X91.419 Y112.891 E.05718
G1 X90.645 Y111.376 E.05334
G1 X90.006 Y109.68 E.05683
G1 X89.438 Y107.136 E.08173
G1 X89.298 Y105.419 E.05401
G1 X89.345 Y103.719 E.05332
G1 X89.437 Y102.872 E.02671
G1 X89.794 Y101.061 E.05788
G1 X90.317 Y99.42 E.054
G1 X91.006 Y97.866 E.0533
G1 X92.426 Y95.587 E.08419
G1 X93.54 Y94.259 E.05435
G1 X93.904 Y93.911 E.01579
M204 S1000
G1 X93.904 Y93.911 F10800
G1 X94.176 Y94.165
M204 S800
G1 F1200
G1 X94.404 Y93.922 E.01045
G1 X95.645 Y92.856 E.0513
G1 X96.408 Y92.305 E.02951
G1 X97.86 Y91.435 E.05307
G1 X99.41 Y90.727 E.05343
G1 X101.869 Y89.995 E.08044
G1 X103.554 Y89.74 E.05343
G1 X105.256 Y89.674 E.05341
G1 X106.92 Y89.793 E.05231
G1 X108.543 Y90.088 E.05172
G1 X110.176 Y90.573 E.05341
G1 X111.051 Y90.918 E.02949
G1 X112.529 Y91.65 E.05171
G1 X113.935 Y92.547 E.05229
G1 X114.684 Y93.121 E.02959
G1 X115.942 Y94.269 E.0534
G1 X117.038 Y95.515 E.05203
G1 X117.993 Y96.872 E.05203
G1 X118.467 Y97.685 E.02951
G1 X119.196 Y99.225 E.05342
G1 X119.737 Y100.793 E.05201
G1 X120.105 Y102.411 E.05203
G1 X120.299 Y104.104 E.05343
G1 X120.326 Y105.044 E.02949
G1 X120.231 Y106.701 E.05204
G1 X119.958 Y108.337 E.052
G1 X119.495 Y109.977 E.05343
G1 X119.163 Y110.857 E.02949
G1 X118.446 Y112.354 E.05204
G1 X117.572 Y113.765 E.05204
G1 X116.522 Y115.106 E.0534
G1 X115.88 Y115.794 E.0295
G1 X114.649 Y116.908 E.05206
G1 X113.306 Y117.881 E.052
G1 X111.825 Y118.724 E.05343
G1 X110.97 Y119.117 E.0295
G1 X109.376 Y119.689 E.0531
G1 X107.748 Y120.079 E.05249
G1 X106.084 Y120.289 E.05259
G1 X104.403 Y120.317 E.05271
G1 X103.464 Y120.251 E.02951
G1 X101.781 Y119.987 E.05341
G1 X100.17 Y119.548 E.05235
G1 X98.626 Y118.941 E.05202
G1 X97.126 Y118.153 E.05313
G1 X96.315 Y117.631 E.03024
G1 X95.001 Y116.62 E.05198
G1 X93.804 Y115.472 E.052
G1 X92.725 Y114.183 E.05271
G1 X92.184 Y113.413 E.02951
G1 X91.35 Y111.977 E.05207
G1 X90.671 Y110.45 E.0524
G1 X90.367 Y109.572 E.02913
G1 X89.95 Y107.921 E.05339
G1 X89.721 Y106.254 E.05276
G1 X89.675 Y104.574 E.05269
G1 X89.811 Y102.919 E.05207
G1 X89.973 Y101.968 E.03025
